X:390
T:Polska efter Omas Per
R:polska
S:Efter [[!Omas Per]]
D:Kurbits
Z:Transcribed to abcby Jon Magnusson 080826
O:Transtrand, Dalarna
M:3/4
L:1/8
K:Dm
(3 efg a>g a>b|(3:2:4 a2gfe2 f>g|(3:2:5 f2ed^cd e>f|(3:2:6 d2(3fga gf (3 de^c|
(3 A2a2g2 a>b|(3:2:4 a2gfe2 f>a|(3:2:4 gba2f2 e>d|(3 ^c=Bc d4:|
|:(3 A=B^c d>c d>e|(3:2:4 f2gfe2 d>g|(3:2:5 f2ed^cd e>f|(3:2:6 d2(3fga gf (3 de^c|
(3 A=B^c d>c d>e|(3:2:4 f2gfe2 f>a|(3:2:4 gba2f2 e>d|(3 ^c=Bc d4:|
(:musicend:)

[[!dublett]] av [[Musik/80|+]]


(:music:)
